X:507
T:The Groves of Blarney
M:3/4
L:1/8
B:O'Neill's 507
N:"Slow with expression"
Z:Transcribed by Dave Wooldridge
K:G
(G>A) \
| B2 g2 (e>d) | (d B3) (G>A) | B2 (cB) {B}(A>G) | G4 (G>A) |
B2 g2 {f}(e>d) | (d B3) (G>A) | B2 (c>B) {B}(A>G) | G4 ||
(d>B) \
| g2 (g>f) {f}(e>d) | (d2 B2) (d>B) | g2 (gfe^d) | e2 ~Hg2 (G>A) |
B2 g2 {f}(e>d) | (d B3) (G>A) | B2 {d}(c>B) {B}(A>G) | G4 ||


